src/assests/svgs/pdf.svg

<?xml version="1.0" encoding="UTF-8"?>
<!DOCTYPE svg  PUBLIC '-//W3C//DTD SVG 1.1//EN'  'http://www.w3.org/Graphics/SVG/1.1/DTD/svg11.dtd'>
<svg clip-rule="evenodd" fill-rule="evenodd" stroke-linejoin="round" stroke-miterlimit="2" version="1.1" viewBox="0 0 36 45" xml:space="preserve" xmlns="http://www.w3.org/2000/svg">
    <g transform="translate(-5008.6 -5257.2)">
        <g transform="translate(4848.2 4892.2)">
            <g transform="matrix(2.25 0 0 2.25 149.05 360.5)">
                <path d="m14 9h5.5l-5.5-5.5v5.5zm-7-7h8l6 6v12c0 1.104-0.896 2-2 2h-12.01c-1.104 0-1.99-0.896-1.99-2l0.01-16c0-1.104 0.885-2 1.99-2zm4.932 10.435c0.411 0.905 0.933 1.645 1.524 2.154l0.418 0.324c-0.872 0.155-2.072 0.435-3.341 0.925v-1e-3l-0.109 0.042 0.492-1.036c0.452-0.869 0.785-1.661 1.016-2.408zm6.475 3.813c0.18-0.18 0.277-0.408 0.284-0.662 0.027-0.195-0.017-0.386-0.123-0.551-0.293-0.463-1.037-0.687-2.277-0.687l-1.298 0.074-0.862-0.585c-0.638-0.522-1.202-1.429-1.596-2.557l0.035-0.141c0.335-1.328 0.637-2.936-0.023-3.595-0.161-0.16-0.372-0.244-0.606-0.244l-0.236-2e-3c-0.378 0-0.686 0.39-0.795 0.776-0.371 1.326-0.149 2.054 0.219 3.265l3e-3 0.012c-0.257 0.88-0.575 1.899-1.087 2.924l-0.952 1.805-0.89 0.49c-1.228 0.753-1.776 1.589-1.882 2.118-0.04 0.194-0.026 0.366 0.053 0.539l0.023 0.052 0.48 0.315 0.439 0.104c0.813 0 1.731-0.947 2.975-3.069l0.183-0.071c1.016-0.331 2.304-0.569 4.049-0.75 1.007 0.51 2.218 0.739 2.984 0.739 0.431 0 0.737-0.105 0.9-0.299zm-0.395-0.706 0.075 0.106c-0.01 0.098-0.042 0.113-0.089 0.129l-0.034 7e-3 -0.195 0.014c-0.456 0-1.165-0.191-1.902-0.512 0.09-0.1 0.159-0.1 0.229-0.1 1.395 0 1.805 0.249 1.916 0.356zm-9.183 1.454c-0.648 1.195-1.237 1.851-1.691 2.008 0.055-0.388 0.499-1.044 1.215-1.693l0.476-0.315zm3.017-6.905c-0.228-0.902-0.235-1.636-0.068-2.051l0.068-0.118 0.147 0.05c0.182 0.242 0.195 0.554 0.098 1.095l-0.031 0.163-0.16 0.823-0.054 0.038z" fill="#e55f55" fill-rule="nonzero"/>
            </g>
        </g>
    </g>
</svg>

<?xml version="1.0" encoding="UTF-8" standalone="no"?>
<!DOCTYPE svg PUBLIC "-//W3C//DTD SVG 1.1//EN" "http://www.w3.org/Graphics/SVG/1.1/DTD/svg11.dtd">
<svg width="100%" height="100%" viewBox="0 0 36 45" version="1.1" xmlns="http://www.w3.org/2000/svg" xmlns:xlink="http://www.w3.org/1999/xlink" xml:space="preserve" xmlns:serif="http://www.serif.com/" style="fill-rule:evenodd;clip-rule:evenodd;stroke-linejoin:round;stroke-miterlimit:2;">
    <g transform="matrix(1,0,0,1,-5008.56,-5257.25)">
        <g transform="matrix(1,0,0,1,4848.25,4892.25)">
            <g id="file-pdf" transform="matrix(2.25,0,0,2.25,149.051,360.503)">
                <path d="M14,9L19.5,9L14,3.5L14,9ZM7,2L15,2L21,8L21,20C21,21.104 20.104,22 19,22L6.99,22C5.886,22 5,21.104 5,20L5.01,4C5.01,2.896 5.895,2 7,2ZM11.932,12.435C12.343,13.34 12.865,14.08 13.456,14.589L13.874,14.913C13.002,15.068 11.802,15.348 10.533,15.838L10.533,15.837L10.424,15.879L10.916,14.843C11.368,13.974 11.701,13.182 11.932,12.435ZM18.407,16.248C18.587,16.068 18.684,15.84 18.691,15.586C18.718,15.391 18.674,15.2 18.568,15.035C18.275,14.572 17.531,14.348 16.291,14.348L14.993,14.422L14.131,13.837C13.493,13.315 12.929,12.408 12.535,11.28L12.57,11.139C12.905,9.811 13.207,8.203 12.547,7.544C12.386,7.384 12.175,7.3 11.941,7.3L11.705,7.298C11.327,7.298 11.019,7.688 10.91,8.074C10.539,9.4 10.761,10.128 11.129,11.339L11.132,11.351C10.875,12.231 10.557,13.25 10.045,14.275L9.093,16.08L8.203,16.57C6.975,17.323 6.427,18.159 6.321,18.688C6.281,18.882 6.295,19.054 6.374,19.227L6.397,19.279L6.877,19.594L7.316,19.698C8.129,19.698 9.047,18.751 10.291,16.629L10.474,16.558C11.49,16.227 12.778,15.989 14.523,15.808C15.53,16.318 16.741,16.547 17.507,16.547C17.938,16.547 18.244,16.442 18.407,16.248ZM18.012,15.542L18.087,15.648C18.077,15.746 18.045,15.761 17.998,15.777L17.964,15.784L17.769,15.798C17.313,15.798 16.604,15.607 15.867,15.286C15.957,15.186 16.026,15.186 16.096,15.186C17.491,15.186 17.901,15.435 18.012,15.542ZM8.829,16.996C8.181,18.191 7.592,18.847 7.138,19.004C7.193,18.616 7.637,17.96 8.353,17.311L8.829,16.996ZM11.846,10.091C11.618,9.189 11.611,8.455 11.778,8.04L11.846,7.922L11.993,7.972C12.175,8.214 12.188,8.526 12.091,9.067L12.06,9.23L11.9,10.053L11.846,10.091Z" style="fill:rgb(229,95,85);fill-rule:nonzero;"/>
            </g>
        </g>
    </g>
</svg>
